contributed-vectors/flip_focus_timer.svg

<svg width="192" height="192" viewBox="0 0 192 192" fill="none" xmlns="http://www.w3.org/2000/svg">
<g clip-path="url(#clip0)">
<g clip-path="url(#clip1)">
<path d="M141.41 47.31V51.09H43.2798V47.31C43.2798 41.07 48.3298 36.03 54.5598 36.03H130.13C136.35 36.03 141.41 41.07 141.41 47.31Z" fill="white"/>
<path d="M43.2798 59.55H141.4V154.46C141.4 160.69 136.35 165.74 130.12 165.74H54.5598C48.3298 165.74 43.2798 160.69 43.2798 154.46V59.55Z" fill="white"/>
<path d="M149.57 51.74C147.96 49.87 146.34 48 144.73 46.14C143.62 47.79 142.51 49.44 141.4 51.09H43.2798V59.55H141.4C143.66 60.45 145.92 61.36 148.19 62.26C148.63 59.9 149.06 57.53 149.5 55.17C147.35 55.17 145.21 55.17 143.06 55.17C145.23 54.02 147.4 52.88 149.57 51.74Z" fill="#69558D"/>
<path d="M75.9302 79.03C73.3002 81.64 70.6702 84.25 68.0402 86.86C67.6002 87.3 66.8902 87.29 66.4502 86.86L65.2402 85.65C64.8002 85.21 64.8002 84.5 65.2402 84.06C67.0502 82.25 68.8502 80.44 70.6602 78.64C70.8802 78.42 70.8802 78.06 70.6602 77.84C68.8502 76.03 67.0502 74.22 65.2402 72.41C64.8002 71.97 64.8002 71.26 65.2402 70.82C65.6402 70.42 66.0402 70.01 66.4502 69.61C66.8902 69.17 67.6002 69.17 68.0402 69.61C70.6702 72.22 73.3102 74.83 75.9302 77.44C76.3702 77.87 76.3702 78.59 75.9302 79.03Z" fill="#69558D"/>
<path d="M57.57 90.6C61.7728 90.6 65.18 89.3374 65.18 87.78C65.18 86.2226 61.7728 84.96 57.57 84.96C53.3671 84.96 49.96 86.2226 49.96 87.78C49.96 89.3374 53.3671 90.6 57.57 90.6Z" fill="#FFD6D4"/>
<path d="M104.46 82.63C104.34 84.11 103.85 87.14 101.66 90.05C100.78 89.44 99.8 88.89 98.71 88.41C96.53 87.45 94.38 87.03 92.38 86.93H92.31C90.31 87.03 88.16 87.45 85.98 88.41C84.89 88.88 83.9 89.44 83.03 90.05C80.84 87.14 80.36 84.11 80.23 82.63C80.99 82.69 86.3 83.02 90.27 78.95C90.48 78.74 90.68 78.51 90.86 78.3C91.49 77.57 91.98 76.81 92.35 76.07C92.72 76.81 93.21 77.57 93.84 78.3C94.02 78.51 94.21 78.74 94.43 78.95C98.39 83.03 103.7 82.69 104.46 82.63Z" fill="#56595B"/>
<path d="M108.76 79.03C111.39 81.64 114.02 84.25 116.65 86.86C117.09 87.3 117.8 87.29 118.24 86.86L119.45 85.65C119.89 85.21 119.89 84.5 119.45 84.06C117.64 82.25 115.84 80.44 114.03 78.64C113.81 78.42 113.81 78.06 114.03 77.84C115.84 76.03 117.64 74.22 119.45 72.41C119.89 71.97 119.89 71.26 119.45 70.82C119.05 70.42 118.65 70.01 118.24 69.61C117.8 69.17 117.09 69.17 116.65 69.61C114.02 72.22 111.38 74.83 108.76 77.44C108.31 77.87 108.31 78.59 108.76 79.03Z" fill="#69558D"/>
<path d="M127.11 90.6C131.313 90.6 134.72 89.3374 134.72 87.78C134.72 86.2226 131.313 84.96 127.11 84.96C122.907 84.96 119.5 86.2226 119.5 87.78C119.5 89.3374 122.907 90.6 127.11 90.6Z" fill="#FFD6D4"/>
<path d="M101.66 90.05C100.51 91.57 99.17 92.7 97.81 93.51C96.5 94.31 95.19 94.83 94.04 95.17C93.41 95.36 92.83 95.49 92.34 95.58C91.84 95.49 91.27 95.37 90.64 95.17C89.49 94.83 88.18 94.31 86.87 93.51C85.52 92.7 84.17 91.57 83.02 90.05C83.9 89.44 84.88 88.89 85.97 88.41C87.59 87.7 89.2 87.28 90.73 87.08C91.26 87 91.79 86.96 92.3 86.93H92.37C92.88 86.95 93.41 87 93.94 87.08C95.47 87.28 97.08 87.7 98.7 88.41C99.8 88.89 100.78 89.44 101.66 90.05Z" fill="#DC505E"/>
<path d="M51.28 144.45V144.46C51.02 144.65 50.77 144.84 50.54 145.04C50.77 144.83 51.02 144.63 51.28 144.45Z" fill="#69558D"/>
<path d="M78.2002 150.6H78.1902L71.6602 141.6L78.2002 150.6Z" fill="#56595B"/>
<path d="M65.99 133.77V133.78L63.25 135.77L65.99 133.77Z" fill="#56595B"/>
<path d="M78.2002 150.6H78.1902L71.6602 141.6L78.2002 150.6Z" fill="#56595B"/>
<path d="M65.99 133.77V133.78L63.25 135.77L65.99 133.77Z" fill="#56595B"/>
<path d="M78.2002 150.6H78.1902L71.6602 141.6L78.2002 150.6Z" fill="#56595B"/>
<path d="M59.6199 138.39V138.4L56.8799 140.4V140.39L59.6199 138.39Z" fill="#56595B"/>
<path d="M61.6998 171.92C60.8098 172.01 59.9098 172.02 59.0298 171.94C59.9198 172.01 60.8098 172.01 61.6998 171.92Z" fill="#69558D"/>
<path d="M63.1702 171.71C62.6902 171.81 62.2002 171.89 61.7002 171.92C62.2002 171.88 62.6802 171.81 63.1702 171.71Z" fill="#69558D"/>
<path d="M69.1799 169.08V169.09C68.0099 169.95 66.7399 170.61 65.4399 171.08C66.7399 170.61 67.9899 169.94 69.1799 169.08Z" fill="#69558D"/>
<path d="M74.77 165.01C72.9 166.37 71.04 167.73 69.17 169.09L65.97 164.69C65.15 163.55 64.32 162.41 63.5 161.27L58.14 153.9L56.96 152.27C56.13 151.13 55.31 150 54.48 148.86L51.27 144.46L51.78 144.09L56.88 140.4L60.07 144.79C63.91 150.07 67.75 155.35 71.58 160.63L74.77 165.01Z" fill="#8C72BD"/>
<path d="M66.4401 140.16H66.4301L62.8201 142.79L59.6201 138.4L63.2301 135.78L63.2501 135.77L66.4401 140.16Z" fill="#8C72BD"/>
<path d="M81.13 160.4C79.93 161.28 78.72 162.15 77.52 163.03C76.45 161.56 75.39 160.1 74.32 158.63C73.49 157.49 72.67 156.36 71.84 155.22L65.29 146.21L68.91 143.6L68.93 143.58L73.23 149.52C73.97 150.54 74.71 151.56 75.45 152.58C76.28 153.72 77.11 154.86 77.94 156L81.13 160.4Z" fill="#8C72BD"/>
<path d="M74.7702 165.01L69.6702 168.72L69.1802 169.09V169.08L65.9702 164.68L71.5802 160.62L74.7702 165.01Z" fill="#8C72BD"/>
<path d="M81.1298 160.4L77.5198 163.03H77.5098L74.3198 158.63L77.9398 156L81.1298 160.4Z" fill="#8C72BD"/>
<path d="M131.39 86.25L126.97 96.18L69.1802 138.18L65.9902 133.78L131.39 86.25Z" fill="#8C72BD"/>
<path d="M149.29 110.87V110.89L83.8799 158.4H83.8699L82.3299 156.27L80.6699 154L138.46 112.02L149.29 110.87Z" fill="#8C72BD"/>
<path d="M78.2002 150.6H78.1902L71.6602 141.6L78.2002 150.6Z" fill="#56595B"/>
<path d="M65.9702 164.69C65.1502 163.55 64.3202 162.41 63.5002 161.27L58.1402 153.9L56.9602 152.27C56.1302 151.13 55.3102 150 54.4802 148.86L51.2702 144.46C51.0202 144.66 50.7702 144.85 50.5302 145.04C50.2802 145.24 50.0602 145.45 49.8302 145.66C49.6102 145.86 49.3802 146.09 49.1702 146.3C48.3602 147.16 47.6702 148.08 47.0902 149.08C46.9802 149.27 46.8602 149.47 46.7602 149.68C46.6502 149.88 46.5502 150.08 46.4602 150.28C46.2702 150.67 46.1102 151.06 45.9602 151.46C45.8902 151.63 45.8402 151.78 45.7902 151.94C45.5602 152.63 45.3802 153.34 45.2402 154.06C45.1702 154.47 45.1202 154.87 45.0702 155.29C45.0502 155.46 45.0402 155.62 45.0302 155.79C45.0002 156.12 44.9902 156.45 44.9902 156.79C44.9902 157.09 45.0002 157.38 45.0302 157.67C45.0302 157.91 45.0502 158.15 45.0802 158.38C45.1102 158.63 45.1402 158.88 45.1702 159.12C45.2402 159.52 45.3202 159.92 45.4102 160.31C45.4402 160.49 45.4902 160.67 45.5502 160.84C45.8602 161.98 46.3102 163.1 46.9102 164.17C47.0602 164.43 47.2102 164.69 47.3702 164.95C47.5402 165.21 47.7102 165.46 47.9002 165.72C48.0402 165.92 48.1802 166.11 48.3402 166.29C48.4302 166.4 48.5202 166.51 48.6202 166.63C48.9202 166.99 49.2402 167.34 49.5802 167.66C49.7302 167.8 49.8602 167.93 50.0102 168.07C50.0902 168.15 50.1802 168.23 50.2702 168.31C50.3802 168.39 50.5002 168.49 50.6102 168.58C51.2602 169.12 51.9602 169.59 52.6802 170.01C53.0502 170.2 53.4102 170.39 53.7702 170.56C53.9602 170.65 54.1402 170.73 54.3302 170.81C54.5102 170.89 54.7002 170.97 54.9002 171.04C55.0902 171.1 55.2802 171.17 55.4702 171.24C55.8502 171.36 56.2402 171.48 56.6302 171.57C56.8402 171.61 57.0302 171.66 57.2302 171.7C57.5202 171.76 57.8202 171.81 58.1202 171.85C58.4102 171.89 58.7202 171.93 59.0202 171.95C59.9102 172.02 60.8102 172.02 61.7002 171.93C62.1902 171.88 62.6802 171.81 63.1602 171.71C63.4602 171.66 63.7402 171.59 64.0202 171.52C64.3002 171.44 64.5802 171.36 64.8702 171.27C65.0602 171.22 65.2502 171.16 65.4302 171.08C66.7402 170.61 67.9902 169.94 69.1702 169.09L65.9702 164.69ZM131.43 86.26H131.39L126.96 96.18L69.1702 138.18L65.9802 133.78L63.2402 135.77L66.4302 140.17H66.4202L62.8102 142.8L59.6202 138.41L56.8802 140.4L60.0702 144.79C63.9102 150.07 67.7502 155.35 71.5802 160.63L74.7702 165.01L77.5102 163.03L74.3202 158.63C73.4902 157.49 72.6702 156.36 71.8402 155.22L65.2902 146.21L68.9102 143.6L68.9302 143.58L73.2302 149.52L75.4602 152.57L75.4502 152.58C76.2802 153.72 77.1102 154.86 77.9402 156L81.1302 160.4L83.8702 158.4L82.3202 156.27L80.6702 154.01L138.46 112.03L149.29 110.88L149.3 110.87L161.68 83.06L131.43 86.26ZM135.86 108.68L78.2002 150.6H78.1902L71.6602 141.6L129.32 99.71C133 99.33 136.69 98.94 140.36 98.56L135.86 108.68Z" fill="#69558D"/>
<path d="M140.37 98.56L135.87 108.68L78.2002 150.6L71.6602 141.6L129.33 99.71C133 99.32 136.69 98.94 140.37 98.56Z" fill="#8C72BD"/>
<path d="M83.8801 158.4H83.8701L82.3301 156.27L83.8801 158.4Z" fill="#56595B"/>
<path d="M66.44 140.16H66.43L63.23 135.78L63.25 135.77L66.44 140.16Z" fill="#56595B"/>
<path d="M73.2399 149.51L68.9199 143.59L68.9299 143.58L73.2399 149.51Z" fill="#56595B"/>
<path d="M77.5198 163.03H77.5098L74.3198 158.63L77.5198 163.03Z" fill="#56595B"/>
<path d="M149.31 110.87H149.29L149.3 110.86L149.31 110.87Z" fill="#56595B"/>
<path d="M44.4298 36.15C44.6798 35.94 44.6698 35.62 44.6698 35.59C44.9298 34.16 45.1598 31.84 44.5598 29.15C43.7898 25.66 41.0998 19.13 36.6498 19.05C33.6698 19 30.4198 21.83 30.0398 24.73C29.4898 28.88 34.6698 34.21 43.6798 36.25C43.9398 36.36 44.2298 36.32 44.4298 36.15Z" fill="white"/>
<path d="M35.4399 36.9C37.3399 37.3 38.5499 38.52 39.1499 39.14C39.7299 39.73 40.1099 40.3 40.3499 40.69C40.5699 40.86 40.6599 41.14 40.5899 41.38C40.4999 41.68 40.1999 41.77 40.1699 41.78C39.6599 42.03 38.9199 42.36 37.9899 42.62C36.8999 42.91 35.6399 43.26 34.2399 42.95C33.8699 42.87 30.9699 42.19 30.7099 40.15C30.5499 38.86 31.5099 37.6 32.5799 37.06C33.6299 36.52 34.6499 36.73 35.4399 36.9Z" fill="white"/>
<path d="M53.3099 19.04C54.9099 19.28 55.8299 20.66 56.1799 21.19C57.0799 22.54 57.1699 23.9 57.1999 24.57C57.4199 28.9 53.6999 32.6 53.0499 33.23C52.9699 33.31 52.5999 33.65 52.0299 33.65C51.2899 33.65 50.8699 33.07 50.8299 33.01C50.1999 32.26 49.3399 31.04 48.7899 29.37C47.7899 26.34 47.8099 21.8 50.3899 19.87C50.6199 19.71 51.8199 18.81 53.3099 19.04Z" fill="white"/>
<path d="M47.0898 139.21C48.6898 140.52 51.1198 142.37 54.2898 144.23C59.6598 147.38 68.2798 152.43 77.0698 150.12C78.8398 149.66 82.6998 148.65 84.4198 145.24C85.8298 142.45 85.0398 139.57 84.8598 138.91C83.6698 134.59 79.8198 132.67 79.3298 132.43C76.2998 130.98 74.7998 132.17 72.4198 130.83C70.0498 129.49 68.8298 126.77 68.1998 123.77C61.1498 128.92 54.1198 134.06 47.0898 139.21Z" fill="white"/>
<path d="M122 133.6C116.29 130.88 112.71 128.66 110.32 126.94C109.51 126.35 107.96 125.19 105.84 125.19C103.74 125.19 102.16 126.35 101.15 127.1C100.25 127.76 97.8402 129.54 97.1102 132.67C97.1102 132.67 96.4902 135.33 97.8202 138.51C99.9302 143.57 108.55 147.29 119.7 148.06C120.47 143.24 121.23 138.42 122 133.6Z" fill="white"/>
</g>
</g>
<defs>
<clipPath id="clip0">
<rect width="192" height="192" fill="white"/>
</clipPath>
<clipPath id="clip1">
<rect width="131.68" height="153" fill="white" transform="translate(30 19)"/>
</clipPath>
</defs>
</svg>

<svg xmlns="http://www.w3.org/2000/svg" width="192" height="192" fill="none"><g clip-path="url(#a)"><g clip-path="url(#b)"><path fill="#fff" d="M141.41 47.31v3.78H43.28v-3.78c0-6.24 5.05-11.28 11.28-11.28h75.57c6.22 0 11.28 5.04 11.28 11.28ZM43.28 59.55h98.12v94.91c0 6.23-5.05 11.28-11.28 11.28H54.56c-6.23 0-11.28-5.05-11.28-11.28V59.55Z"/><path fill="#69558D" d="M149.57 51.74c-1.61-1.87-3.23-3.74-4.84-5.6l-3.33 4.95H43.28v8.46h98.12c2.26.9 4.52 1.81 6.79 2.71.44-2.36.87-4.73 1.31-7.09h-6.44c2.17-1.15 4.34-2.29 6.51-3.43ZM75.93 79.03l-7.89 7.83c-.44.44-1.15.43-1.59 0l-1.21-1.21c-.44-.44-.44-1.15 0-1.59 1.81-1.81 3.61-3.62 5.42-5.42.22-.22.22-.58 0-.8-1.81-1.81-3.61-3.62-5.42-5.43-.44-.44-.44-1.15 0-1.59.4-.4.8-.81 1.21-1.21.44-.44 1.15-.44 1.59 0 2.63 2.61 5.27 5.22 7.89 7.83.44.43.44 1.15 0 1.59Z"/><path fill="#FFD6D4" d="M57.57 90.6c4.203 0 7.61-1.263 7.61-2.82s-3.407-2.82-7.61-2.82-7.61 1.263-7.61 2.82 3.407 2.82 7.61 2.82Z"/><path fill="#56595B" d="M104.46 82.63c-.12 1.48-.61 4.51-2.8 7.42-.88-.61-1.86-1.16-2.95-1.64-2.18-.96-4.33-1.38-6.33-1.48h-.07c-2 .1-4.15.52-6.33 1.48-1.09.47-2.08 1.03-2.95 1.64-2.19-2.91-2.67-5.94-2.8-7.42.76.06 6.07.39 10.04-3.68.21-.21.41-.44.59-.65.63-.73 1.12-1.49 1.49-2.23.37.74.86 1.5 1.49 2.23.18.21.37.44.59.65 3.96 4.08 9.27 3.74 10.03 3.68Z"/><path fill="#69558D" d="m108.76 79.03 7.89 7.83c.44.44 1.15.43 1.59 0l1.21-1.21c.44-.44.44-1.15 0-1.59-1.81-1.81-3.61-3.62-5.42-5.42a.567.567 0 0 1 0-.8c1.81-1.81 3.61-3.62 5.42-5.43.44-.44.44-1.15 0-1.59-.4-.4-.8-.81-1.21-1.21-.44-.44-1.15-.44-1.59 0-2.63 2.61-5.27 5.22-7.89 7.83-.45.43-.45 1.15 0 1.59Z"/><path fill="#FFD6D4" d="M127.11 90.6c4.203 0 7.61-1.263 7.61-2.82s-3.407-2.82-7.61-2.82-7.61 1.263-7.61 2.82 3.407 2.82 7.61 2.82Z"/><path fill="#DC505E" d="M101.66 90.05a13.459 13.459 0 0 1-3.85 3.46c-1.31.8-2.62 1.32-3.77 1.66-.63.19-1.21.32-1.7.41-.5-.09-1.07-.21-1.7-.41-1.15-.34-2.46-.86-3.77-1.66a13.59 13.59 0 0 1-3.85-3.46c.88-.61 1.86-1.16 2.95-1.64 1.62-.71 3.23-1.13 4.76-1.33.53-.08 1.06-.12 1.57-.15h.07c.51.02 1.04.07 1.57.15 1.53.2 3.14.62 4.76 1.33 1.1.48 2.08 1.03 2.96 1.64Z"/><path fill="#69558D" d="M51.28 144.45v.01c-.26.19-.51.38-.74.58.23-.21.48-.41.74-.59Z"/><path fill="#56595B" d="M78.2 150.6h-.01l-6.53-9 6.54 9ZM65.99 133.77v.01l-2.74 1.99 2.74-2Z"/><path fill="#56595B" d="M78.2 150.6h-.01l-6.53-9 6.54 9ZM65.99 133.77v.01l-2.74 1.99 2.74-2Z"/><path fill="#56595B" d="M78.2 150.6h-.01l-6.53-9 6.54 9ZM59.62 138.39v.01l-2.74 2v-.01l2.74-2Z"/><path fill="#69558D" d="M61.7 171.92c-.89.09-1.79.1-2.67.02.89.07 1.78.07 2.67-.02ZM63.17 171.71c-.48.1-.97.18-1.47.21.5-.04.98-.11 1.47-.21ZM69.18 169.08v.01c-1.17.86-2.44 1.52-3.74 1.99 1.3-.47 2.55-1.14 3.74-2Z"/><path fill="#8C72BD" d="M74.77 165.01c-1.87 1.36-3.73 2.72-5.6 4.08l-3.2-4.4c-.82-1.14-1.65-2.28-2.47-3.42l-5.36-7.37-1.18-1.63-2.48-3.41-3.21-4.4.51-.37 5.1-3.69 3.19 4.39c3.84 5.28 7.68 10.56 11.51 15.84l3.19 4.38ZM66.44 140.16h-.01l-3.61 2.63-3.2-4.39 3.61-2.62.02-.01 3.19 4.39ZM81.13 160.4c-1.2.88-2.41 1.75-3.61 2.63l-3.2-4.4-2.48-3.41-6.55-9.01 3.62-2.61.02-.02 4.3 5.94 2.22 3.06 2.49 3.42 3.19 4.4Z"/><path fill="#8C72BD" d="m74.77 165.01-5.1 3.71-.49.37v-.01l-3.21-4.4 5.61-4.06 3.19 4.39ZM81.13 160.4l-3.61 2.63h-.01l-3.19-4.4 3.62-2.63 3.19 4.4ZM131.39 86.25l-4.42 9.93-57.79 42-3.19-4.4 65.4-47.53ZM149.29 110.87v.02L83.88 158.4h-.01l-1.54-2.13-1.66-2.27 57.79-41.98 10.83-1.15Z"/><path fill="#56595B" d="M78.2 150.6h-.01l-6.53-9 6.54 9Z"/><path fill="#69558D" d="M65.97 164.69c-.82-1.14-1.65-2.28-2.47-3.42l-5.36-7.37-1.18-1.63-2.48-3.41-3.21-4.4c-.25.2-.5.39-.74.58-.25.2-.47.41-.7.62-.22.2-.45.43-.66.64-.81.86-1.5 1.78-2.08 2.78-.11.19-.23.39-.33.6-.11.2-.21.4-.3.6-.19.39-.35.78-.5 1.18-.07.17-.12.32-.17.48-.23.69-.41 1.4-.55 2.12-.07.41-.12.81-.17 1.23-.02.17-.03.33-.04.5-.03.33-.04.66-.04 1 0 .3.01.59.04.88 0 .24.02.48.05.71l.09.74c.07.4.15.8.24 1.19.03.18.08.36.14.53.31 1.14.76 2.26 1.36 3.33.15.26.3.52.46.78.17.26.34.51.53.77.14.2.28.39.44.57l.28.34c.3.36.62.71.96 1.03.15.14.28.27.43.41.08.08.17.16.26.24.11.08.23.18.34.27.65.54 1.35 1.01 2.07 1.43.37.19.73.38 1.09.55.19.09.37.17.56.25.18.08.37.16.57.23.19.06.38.13.57.2.38.12.77.24 1.16.33.21.04.4.09.6.13.29.06.59.11.89.15a14.995 14.995 0 0 0 3.58.08c.49-.05.98-.12 1.46-.22.3-.05.58-.12.86-.19.28-.08.56-.16.85-.25.19-.05.38-.11.56-.19a15.16 15.16 0 0 0 3.74-1.99l-3.2-4.4Zm65.46-78.43h-.04l-4.43 9.92-57.79 42-3.19-4.4-2.74 1.99 3.19 4.4h-.01l-3.61 2.63-3.19-4.39-2.74 1.99 3.19 4.39c3.84 5.28 7.68 10.56 11.51 15.84l3.19 4.38 2.74-1.98-3.19-4.4-2.48-3.41-6.55-9.01 3.62-2.61.02-.02 4.3 5.94 2.23 3.05-.01.01 2.49 3.42 3.19 4.4 2.74-2-1.55-2.13-1.65-2.26 57.79-41.98 10.83-1.15.01-.01 12.38-27.81-30.25 3.2Zm4.43 22.42L78.2 150.6h-.01l-6.53-9 57.66-41.89c3.68-.38 7.37-.77 11.04-1.15l-4.5 10.12Z"/><path fill="#8C72BD" d="m140.37 98.56-4.5 10.12L78.2 150.6l-6.54-9 57.67-41.89c3.67-.39 7.36-.77 11.04-1.15Z"/><path fill="#56595B" d="M83.88 158.4h-.01l-1.54-2.13 1.55 2.13ZM66.44 140.16h-.01l-3.2-4.38.02-.01 3.19 4.39ZM73.24 149.51l-4.32-5.92.01-.01 4.31 5.93ZM77.52 163.03h-.01l-3.19-4.4 3.2 4.4ZM149.31 110.87h-.02l.01-.01.01.01Z"/><path fill="#fff" d="M44.43 36.15c.25-.21.24-.53.24-.56.26-1.43.49-3.75-.11-6.44-.77-3.49-3.46-10.02-7.91-10.1-2.98-.05-6.23 2.78-6.61 5.68-.55 4.15 4.63 9.48 13.64 11.52.26.11.55.07.75-.1ZM35.44 36.9c1.9.4 3.11 1.62 3.71 2.24.58.59.96 1.16 1.2 1.55.22.17.31.45.24.69-.09.3-.39.39-.42.4-.51.25-1.25.58-2.18.84-1.09.29-2.35.64-3.75.33-.37-.08-3.27-.76-3.53-2.8-.16-1.29.8-2.55 1.87-3.09 1.05-.54 2.07-.33 2.86-.16ZM53.31 19.04c1.6.24 2.52 1.62 2.87 2.15.9 1.35.99 2.71 1.02 3.38.22 4.33-3.5 8.03-4.15 8.66-.08.08-.45.42-1.02.42-.74 0-1.16-.58-1.2-.64-.63-.75-1.49-1.97-2.04-3.64-1-3.03-.98-7.57 1.6-9.5.23-.16 1.43-1.06 2.92-.83ZM47.09 139.21a56.49 56.49 0 0 0 7.2 5.02c5.37 3.15 13.99 8.2 22.78 5.89 1.77-.46 5.63-1.47 7.35-4.88 1.41-2.79.62-5.67.44-6.33-1.19-4.32-5.04-6.24-5.53-6.48-3.03-1.45-4.53-.26-6.91-1.6-2.37-1.34-3.59-4.06-4.22-7.06-7.05 5.15-14.08 10.29-21.11 15.44ZM122 133.6c-5.71-2.72-9.29-4.94-11.68-6.66-.81-.59-2.36-1.75-4.48-1.75-2.1 0-3.68 1.16-4.69 1.91-.9.66-3.31 2.44-4.04 5.57 0 0-.62 2.66.71 5.84 2.11 5.06 10.73 8.78 21.88 9.55.77-4.82 1.53-9.64 2.3-14.46Z"/></g></g><defs><clipPath id="a"><path fill="#fff" d="M0 0h192v192H0z"/></clipPath><clipPath id="b"><path fill="#fff" d="M30 19h131.68v153H30z"/></clipPath></defs></svg>
